icon-themes/colibre_svg/cmd/32/mailmergeprintdocuments.svg

<svg viewBox="0 0 32 32" xmlns="http://www.w3.org/2000/svg"><path d="m4 2c-.554 0-1 .446-1 1v22c0 .554.4567584.891352 1 1h3c.7643635.878143.9252051.0098 1 0v-14c0-.554.446-1 1-1h12v-8c0-.554-.446-1-1-1zm5 25c-6 3.333333-3 1.666667 0 0z" fill="#808080"/><path d="m4 3v22h3l1 1v-14c0-.554.446-1 1-1h11v-8z" fill="#fff"/><path d="m7 6c-.554 0-1 .446-1 1v22c0 .554.446 1 1 1h10c-1.09 0-2-.91-2-2v-6c0-1.09.909297-2 2-2v-.066406c0-1.053824.87977-1.933594 1.933594-1.933594h5.066406v-11c0-.554-.446-1-1-1z" fill="#808080"/><path d="m7 7v22h8.214844l.021484-.085938c-.145848-.276278-.236328-.584629-.236328-.914062v-6c0-1.090703.909297-2 2-2v-.066406c0-1.053824.87977-1.933594 1.933594-1.933594h4.066406v-11z" fill="#fff"/><path d="m18.933594 19c-.517279 0-.933594.416315-.933594.933594v1.066406h-1c-.554 0-1 .446-1 1v6c0 .554.446 1 1 1h2v1c0 .624099.431677 1 1 1h6c.554 0 1-.446 1-1v-1h2c.554 0 1-.446 1-1v-6c0-.554-.446-1-1-1h-1v-1.066406c0-.517279-.416315-.933594-.933594-.933594z" fill="#4d82b8"/><path d="m17 22v6h12v-6zm9.5 2h1c.277 0 .5.223.5.5s-.223.5-.5.5h-1c-.277 0-.5-.223-.5-.5s.223-.5.5-.5z" fill="#fff"/></svg>

<svg viewBox="0 0 32 32" xmlns="http://www.w3.org/2000/svg">
 <path d="m4 2c-.554 0-1 .446-1 1v22c0 .554.4567584.891352 1 1h3c .7643635.878143.9252051.0098 1 0v-14c0-.554.446-1 1-1h12v-8c0-.554-.446-1-1-1zm5 25c-6 3.333333-3 1.666667 0 0z" fill="#808080" />
 <path d="m4 3v22h3l1 1v-14c0-.554.446-1 1-1h11v-8z" fill="#fff" />
 <path d="M 7 6 C 6.446 6 6 6.446 6 7 L 6 29 C 6 29.554 6.446 30 7 30 L 17 30 C 15.91 30 15 29.09 15 28 L 15 22 C 15 20.91 15.909297 20 17 20 L 17 19.933594 C 17 18.87977 17.87977 18 18.933594 18 L 24 18 L 24 7 C 24 6.446 23.554 6 23 6 L 7 6 z " fill="#808080"/>
 <path d="M 7 7 L 7 29 L 15.214844 29 L 15.236328 28.914062 C 15.09048 28.637784 15 28.329433 15 28 L 15 22 C 15 20.909297 15.909297 20 17 20 L 17 19.933594 C 17 18.87977 17.87977 18 18.933594 18 L 23 18 L 23 7 L 7 7 z " fill="#ffffff"/>
 <path d="M 18.933594,19 C 18.416315,19 18,19.416315 18,19.933594 V 21 h -1 c -0.554,0 -1,0.446 -1,1 v 6 c 0,0.554 0.446,1 1,1 h 2 v 1 c 0,0.624099 0.431677,1 1,1 h 6 c 0.554,0 1,-0.446 1,-1 v -1 h 2 c 0.554,0 1,-0.446 1,-1 v -6 c 0,-0.554 -0.446,-1 -1,-1 H 28 V 19.933594 C 28,19.416315 27.583685,19 27.066406,19 Z" fill="#4d82b8"/>
 <path d="m 17,22 v 6 h 12 v -6 z m 9.5,2 h 1 c 0.277,0 0.5,0.223 0.5,0.5 0,0.277 -0.223,0.5 -0.5,0.5 h -1 C 26.223,25 26,24.777 26,24.5 26,24.223 26.223,24 26.5,24 Z" fill="#ffffff"/>
</svg>
